public/icons/rocket.svg

<svg width="76" height="76" viewBox="0 0 76 76" fill="none" xmlns="http://www.w3.org/2000/svg">
<path d="M28.4353 20.8183C28.0236 22.3074 27.8385 23.8555 27.7259 25.3931C27.5987 27.1714 27.5625 28.9551 27.6176 30.737C27.7217 34.1908 28.1643 37.6298 28.8385 41.0168C29.5204 44.4431 30.4415 47.8173 31.4893 51.1501C31.6941 51.8024 31.9024 52.5202 32.4893 52.9354C33.0881 53.3576 33.8474 53.3069 34.5378 53.2169C35.3224 53.1162 36.1098 53.0353 36.8945 52.9354C38.9739 52.6736 41.1167 52.3724 43.0793 51.618C43.8499 51.3218 44.6781 50.9432 45.2306 50.307C46.075 49.3352 45.9244 47.9419 45.6732 46.7688C45.2925 44.9983 44.8083 43.2433 44.3404 41.491C43.8682 39.724 43.3988 37.9549 42.8943 36.1971C41.9407 32.8629 40.9556 29.5126 39.6819 26.2791C39.0915 24.7547 38.4101 23.2672 37.6411 21.8246C36.8917 20.4383 36.0578 19.0281 35.0156 17.8396C34.1226 16.822 32.8503 16.0212 31.4499 16.392C30.2726 16.7045 29.5042 17.7769 29.0271 18.8318C28.7483 19.4663 28.5263 20.1243 28.3635 20.7979C28.2495 21.2497 28.9426 21.4418 29.0616 20.9908C29.3698 19.8289 29.7864 18.5348 30.6751 17.6777C31.5956 16.7889 32.8735 16.9177 33.8228 17.7023C34.3745 18.1583 34.8136 18.7305 35.2232 19.3117C35.6736 19.9493 36.0958 20.6061 36.4898 21.2821C37.2663 22.6198 37.9548 24.0067 38.551 25.4339C39.7966 28.381 40.7459 31.4513 41.6691 34.5117C42.6754 37.8501 43.6015 41.2068 44.4178 44.5965C44.6176 45.4247 44.8316 46.2537 44.9955 47.0897C45.1363 47.8082 45.2425 48.6308 44.9716 49.3338C44.7506 49.9073 44.1187 50.3141 43.5712 50.5963C41.8486 51.485 39.8029 51.7968 37.9057 52.074C37.0493 52.2 36.1901 52.3006 35.3309 52.4013C34.3921 52.5117 33.079 52.9115 32.5273 51.8939C32.1691 51.2289 32.008 50.4161 31.7884 49.699C31.5501 48.9193 31.32 48.1375 31.0981 47.3536C30.6477 45.7569 30.2353 44.1489 29.8715 42.5297C28.4754 36.3062 27.7787 29.7772 28.5661 23.4185C28.6682 22.598 28.8082 21.7796 28.9884 20.9725C29.07 20.6115 28.5338 20.4602 28.4353 20.8183Z" fill="#1574E5"/>
<path d="M30.3078 47.2622C28.9771 48.4198 28.1967 50.2705 27.861 51.9664C27.481 53.896 27.6612 55.8853 28.1883 57.7699C28.5028 58.8958 28.9518 59.9689 29.4423 61.028C29.5879 61.3419 30.0756 61.1751 30.0756 60.857C30.0622 59.4496 30.2628 58.076 30.818 56.7755C31.3745 55.4879 32.2086 54.3391 33.2606 53.4111C33.5554 53.1493 33.1198 52.718 32.8285 52.979C30.6709 54.8995 29.2628 57.9458 29.3958 60.8556L30.0291 60.6846C28.9412 58.5116 28.2333 56.0402 28.3346 53.5976C28.3741 52.5168 28.5865 51.4494 28.9637 50.4359C29.3613 49.3803 29.9757 48.5021 30.6892 47.6408C30.7354 47.5896 30.7601 47.5227 30.7584 47.4539C30.7567 47.385 30.7286 47.3195 30.6799 47.2707C30.6313 47.222 30.5658 47.1938 30.4969 47.1919C30.4281 47.19 30.3611 47.2147 30.3099 47.2608L30.3078 47.2622Z" fill="#1574E5"/>
<path d="M44.5944 43.7753C45.3826 44.2074 46.2326 44.4987 47.0032 44.9716C49.3421 46.4037 51.1174 48.5967 52.0312 51.1825C52.3689 52.1662 52.5505 53.1967 52.5695 54.2366L52.9917 53.9959C50.5339 52.2602 47.7919 50.9668 44.8893 50.1741C44.4755 50.0608 44.2974 50.7103 44.7126 50.8159C47.5759 51.5478 50.284 52.7892 52.7074 54.4808C52.8819 54.6039 53.1296 54.4399 53.1296 54.2401C53.0501 50.4169 50.9362 46.6239 47.6372 44.6479C46.7604 44.1229 45.7063 43.5712 44.6662 43.522C44.6373 43.5242 44.6097 43.5352 44.5874 43.5537C44.565 43.5721 44.5488 43.597 44.5411 43.6249C44.5334 43.6529 44.5345 43.6825 44.5443 43.7098C44.5541 43.7371 44.5721 43.7607 44.5958 43.7774L44.5944 43.7753Z" fill="#1574E5"/>
<path d="M33.8552 53.3647C34.5948 54.0395 34.6996 55.1331 35.2746 55.9233C35.8959 56.7734 36.8832 57.0795 37.9029 57.0338C39.0513 56.981 40.1547 56.5905 41.2539 56.2872C42.3721 55.9789 43.7169 55.8312 44.3277 54.7081C45.0004 53.466 45.1363 51.8623 44.9716 50.4858C44.9251 50.096 44.3073 50.0932 44.3559 50.4858C44.5036 51.6821 44.3995 52.915 43.9737 54.0473C43.7704 54.5884 43.4453 54.9938 42.9048 55.2218C42.3644 55.4498 41.7859 55.5694 41.2286 55.7193C39.6375 56.1492 36.8579 57.2139 35.7214 55.4068C35.1964 54.5729 35.0064 53.5737 34.1578 52.9755C33.9263 52.8123 33.6476 53.1775 33.8552 53.3675V53.3647Z" fill="#1574E5"/>
<path d="M34.9551 28.9546C33.3739 28.5422 31.7054 29.2924 30.7948 30.6161C29.8272 32.0235 30.0679 33.8271 31.091 35.1282C32.141 36.4652 33.8763 36.9698 35.4505 36.2956C36.9733 35.6433 38.102 34.0396 37.8902 32.3507C37.6559 30.4809 35.955 28.9272 34.06 28.9314C33.6849 28.9314 33.6849 29.507 34.06 29.5141C35.4927 29.5401 36.7573 30.6273 37.138 31.989C37.5187 33.3506 36.8107 34.7271 35.6313 35.4308C34.4287 36.1486 32.9481 36.0275 31.913 35.0698C30.9214 34.155 30.4732 32.6505 31.0566 31.3894C31.6962 30.0052 33.3316 29.1341 34.8368 29.3839C35.1134 29.4296 35.238 29.0285 34.9551 28.9546Z" fill="#1574E5"/>
<path d="M28.2284 24.8625C29.7716 24.5191 31.2775 23.99 32.8165 23.6184C34.3555 23.2468 35.9199 23.0069 37.4863 22.75C37.8199 22.6951 37.7446 22.1322 37.4061 22.1575C35.8051 22.2785 34.1944 22.5896 32.63 22.9421C31.0819 23.294 29.4591 23.6923 28.0327 24.3988C27.7653 24.5311 27.9582 24.9224 28.2284 24.8625Z" fill="#1574E5"/>
<path d="M30.2536 45.6859C30.5006 45.7457 30.7371 45.6556 30.977 45.5888C31.2585 45.5099 31.54 45.4213 31.8215 45.3396C32.3873 45.175 32.9526 45.0089 33.5174 44.8414C34.6466 44.5051 35.7845 44.1987 36.9311 43.9224C38.0776 43.6461 39.2315 43.4035 40.3926 43.1948C41.5523 42.9836 42.7289 42.8682 43.8851 42.6536C44.2271 42.5903 44.1511 42.0203 43.8027 42.0449C42.6494 42.1153 41.4805 42.3496 40.3454 42.5488C39.1632 42.7566 37.9873 42.9951 36.8178 43.2644C35.6684 43.529 34.5275 43.8248 33.395 44.1518C32.832 44.3151 32.2655 44.4973 31.711 44.6936C31.433 44.7929 31.1551 44.8935 30.8792 44.9998C30.6371 45.0933 30.3367 45.175 30.1755 45.3833C30.0967 45.4839 30.1101 45.6507 30.255 45.6859H30.2536Z" fill="#1574E5"/>
<path d="M37.57 56.8269C37.3434 57.5264 37.5166 58.3363 37.9085 58.9457C38.1041 59.2533 38.3615 59.5169 38.6643 59.7198C38.9971 59.9429 39.5791 60.0013 39.6453 60.4622C39.7037 60.8704 39.6291 61.2574 39.7705 61.6585C39.9005 62.0122 40.1113 62.3305 40.3863 62.5881C41.0583 63.232 42.0139 63.448 42.9013 63.5986C43.1645 63.6437 43.2799 63.2433 43.0132 63.1933C42.173 63.0385 41.2539 62.9118 40.6128 62.2919C40.311 61.9977 40.1062 61.6057 40.1294 61.1765C40.1491 60.8127 40.2814 60.4636 40.1723 60.0991C40.0731 59.767 39.7881 59.5699 39.4834 59.444C39.1555 59.3082 38.8648 59.1702 38.6115 58.9134C38.0887 58.3835 37.8832 57.6742 37.9831 56.943C38.0197 56.677 37.6573 56.5588 37.57 56.829V56.8269Z" fill="#1574E5"/>
<path d="M43.4994 63.4255C43.5234 62.9702 43.5304 62.4973 43.6803 62.0617C43.8133 61.6775 44.08 61.3904 44.3699 61.116C44.828 60.6839 45.3861 60.2469 45.479 59.5819C45.581 58.8486 45.0786 58.2955 44.6268 57.7874C44.0258 57.1112 43.688 56.3638 43.9062 55.4462C43.9808 55.1338 43.5065 55.0015 43.4249 55.3132C43.3201 55.7068 43.303 56.1186 43.3748 56.5195C43.4467 56.9204 43.6058 57.3007 43.8407 57.6333C44.2313 58.1752 45.113 58.748 45.0202 59.5031C44.935 60.1899 44.1588 60.629 43.7387 61.1026C43.1581 61.762 43.066 62.5804 43.0829 63.4248C43.0878 63.6964 43.4889 63.6943 43.5051 63.4248L43.4994 63.4255Z" fill="#1574E5"/>
<path d="M37.1042 45.8442C36.0754 46.1334 35.0522 46.4297 34.0079 46.6647C32.9636 46.8997 31.9059 47.0524 30.8574 47.2614C30.5161 47.3318 30.6667 47.8244 30.9981 47.7751C32.0453 47.6161 33.0924 47.3276 34.1134 47.0517C35.1345 46.7759 36.1753 46.481 37.1774 46.1165C37.3456 46.0553 37.2801 45.7942 37.1021 45.8442H37.1042Z" fill="#1574E5"/>
<path d="M35.7925 48.146C35.0557 48.3051 34.3098 48.4127 33.5737 48.5753C32.8376 48.7378 32.0959 48.8659 31.3676 49.0517C30.9996 49.146 31.1565 49.716 31.5245 49.6217C32.25 49.4359 32.9657 49.1896 33.6849 48.9799C34.4041 48.7702 35.112 48.5049 35.8319 48.2903C35.851 48.285 35.8673 48.2724 35.8771 48.2552C35.887 48.238 35.8895 48.2176 35.8843 48.1984C35.8791 48.1793 35.8665 48.163 35.8493 48.1532C35.832 48.1434 35.8116 48.1408 35.7925 48.146Z" fill="#1574E5"/>
<path d="M36.0296 50.1867C34.7154 50.6779 33.3438 50.999 31.9481 51.1424C31.9081 51.1435 31.8687 51.1531 31.8326 51.1705C31.7965 51.1878 31.7644 51.2126 31.7385 51.2432C31.7125 51.2738 31.6933 51.3094 31.6821 51.3479C31.6709 51.3864 31.6679 51.4268 31.6733 51.4665C31.6787 51.5062 31.6924 51.5444 31.7135 51.5784C31.7346 51.6125 31.7627 51.6418 31.7958 51.6643C31.829 51.6868 31.8665 51.7021 31.906 51.7092C31.9454 51.7162 31.9859 51.7149 32.0249 51.7053C33.4434 51.451 34.8277 51.033 36.15 50.4598C36.3048 50.3943 36.1936 50.1262 36.0346 50.186L36.0296 50.1867Z" fill="#1574E5"/>
<path d="M37.0275 54.8621C36.8642 54.4941 36.7017 54.1254 36.544 53.7545C36.3864 53.3837 36.2816 52.9854 36.0951 52.6286C36.0642 52.5772 36.0144 52.54 35.9565 52.5248C35.8985 52.5095 35.8369 52.5175 35.7847 52.547C35.7341 52.5785 35.6974 52.6282 35.6824 52.686C35.6673 52.7437 35.675 52.805 35.7038 52.8573C35.8628 53.2225 36.1042 53.5518 36.2914 53.9037C36.4786 54.2555 36.6623 54.613 36.8445 54.9698C36.9071 55.093 37.0817 54.9846 37.0275 54.8628V54.8621Z" fill="#1574E5"/>
<path d="M38.62 54.226C38.5419 53.915 38.4651 53.6053 38.399 53.2922C38.3652 53.1353 38.3286 52.979 38.3019 52.8214L38.2625 52.6033C38.2539 52.5171 38.2377 52.4318 38.2139 52.3485C38.1958 52.2929 38.1569 52.2464 38.1054 52.2187C38.0539 52.191 37.9936 52.1842 37.9372 52.1998C37.8808 52.2154 37.8326 52.2522 37.8026 52.3024C37.7726 52.3527 37.7632 52.4125 37.7762 52.4696C37.7974 52.5534 37.8262 52.6351 37.8621 52.7137L37.9381 52.9249C37.993 53.0755 38.0415 53.2274 38.0915 53.3794C38.1921 53.6834 38.2822 53.9896 38.373 54.2943C38.383 54.3264 38.4053 54.3534 38.4349 54.3694C38.4646 54.3855 38.4993 54.3893 38.5317 54.3802C38.5642 54.371 38.5917 54.3495 38.6086 54.3204C38.6255 54.2912 38.6303 54.2566 38.6221 54.2239L38.62 54.226Z" fill="#1574E5"/>
<path d="M40.634 54.0578C40.5552 53.7271 40.4761 53.3963 40.3968 53.0656C40.3584 52.9037 40.3218 52.7412 40.287 52.5779C40.2709 52.4991 40.2519 52.4217 40.2378 52.3429C40.2249 52.2537 40.2204 52.1634 40.2244 52.0734C40.2238 52.0413 40.2158 52.0098 40.2012 51.9813C40.1866 51.9527 40.1656 51.9279 40.14 51.9087C40.1143 51.8894 40.0846 51.8763 40.0531 51.8702C40.0216 51.8642 39.9892 51.8654 39.9582 51.8738C39.9273 51.8822 39.8986 51.8975 39.8745 51.9186C39.8503 51.9397 39.8313 51.966 39.8188 51.9955C39.8064 52.0251 39.8008 52.0571 39.8025 52.0891C39.8043 52.1211 39.8133 52.1523 39.8289 52.1803C39.8693 52.2526 39.9035 52.3281 39.931 52.4062C39.957 52.4885 39.9774 52.5737 40.0013 52.6567C40.045 52.8179 40.0872 52.979 40.1266 53.1409C40.2073 53.4693 40.2884 53.7993 40.3701 54.131C40.4123 54.3027 40.6762 54.2302 40.6347 54.0606L40.634 54.0578Z" fill="#1574E5"/>
<path d="M42.2511 53.2957L42.1307 52.4294C42.111 52.2887 42.092 52.1522 42.0723 52.0136C42.0441 51.8673 42.0318 51.7184 42.0357 51.5695C42.0356 51.5439 42.0299 51.5185 42.0192 51.4952C42.0085 51.4719 41.9929 51.4511 41.9736 51.4343C41.9542 51.4174 41.9315 51.4049 41.9069 51.3975C41.8823 51.3901 41.8564 51.3881 41.831 51.3915C41.7332 51.4049 41.6389 51.5139 41.6804 51.6174C41.7271 51.7611 41.7577 51.9095 41.7719 52.06L41.8373 52.4921L41.9703 53.3731C41.9807 53.4102 42.0052 53.4417 42.0387 53.4608C42.0722 53.48 42.1118 53.4851 42.149 53.4751C42.1858 53.464 42.2169 53.4392 42.2359 53.4058C42.2549 53.3724 42.2603 53.333 42.2511 53.2957Z" fill="#1574E5"/>
<path d="M43.4438 52.8728C43.4928 52.5999 43.5271 52.3246 43.5466 52.048C43.5656 51.775 43.5564 51.5048 43.56 51.2317C43.56 51.1827 43.5405 51.1356 43.5058 51.1009C43.471 51.0662 43.424 51.0467 43.3749 51.0467C43.3258 51.0467 43.2787 51.0662 43.244 51.1009C43.2093 51.1356 43.1898 51.1827 43.1898 51.2317C43.214 51.4928 43.217 51.7555 43.199 52.0171C43.1866 52.2735 43.16 52.5291 43.1194 52.7827C43.1088 52.8258 43.1151 52.8712 43.137 52.9098C43.1588 52.9484 43.1946 52.9772 43.237 52.9903C43.28 53.002 43.3259 52.9962 43.3646 52.9741C43.4034 52.9521 43.4318 52.9157 43.4438 52.8728Z" fill="#1574E5"/>
<path d="M31.1037 30.5105C31.236 31.3852 31.3852 32.2571 31.5653 33.1233C31.7455 33.9896 31.8954 34.8699 32.1346 35.7165C32.205 35.96 32.5639 35.8572 32.5118 35.6123C32.3282 34.7468 32.0896 33.896 31.9235 33.0248C31.7574 32.1536 31.6033 31.2846 31.4682 30.4099C31.4316 30.1692 31.0671 30.2691 31.1037 30.5105Z" fill="#1574E5"/>
<path d="M31.863 29.9187C32.2852 31.965 32.6427 34.0431 33.1648 36.0676C33.2261 36.3048 33.5667 36.2013 33.5258 35.9677C33.1698 33.9087 32.6385 31.87 32.1846 29.83C32.1374 29.6189 31.8201 29.7097 31.863 29.9187Z" fill="#1574E5"/>
<path d="M32.6913 29.4148C33.2971 31.6491 33.8425 33.9108 34.5146 36.126C34.5284 36.1668 34.5573 36.2007 34.5954 36.2208C34.6334 36.241 34.6777 36.2458 34.7192 36.2344C34.7607 36.223 34.7963 36.1962 34.8187 36.1594C34.8411 36.1227 34.8486 36.0788 34.8397 36.0366C34.3147 33.7848 33.656 31.5498 33.0642 29.3121C33.0009 29.0714 32.6258 29.1713 32.6913 29.4148Z" fill="#1574E5"/>
<path d="M33.8439 29.2558C34.4008 31.2885 34.918 33.3312 35.3956 35.3836C35.4456 35.5947 35.77 35.5054 35.7207 35.2943C35.2398 33.2427 34.7161 31.202 34.1493 29.172C34.0944 28.9764 33.7904 29.0594 33.8439 29.2558Z" fill="#1574E5"/>
<path d="M35.0247 29.4852C35.4589 31.3423 35.8361 33.2254 36.3336 35.067C36.404 35.3154 36.777 35.2077 36.7193 34.9607C36.2893 33.1036 35.7341 31.267 35.2415 29.4254C35.2042 29.2846 34.9917 29.3444 35.0247 29.4852Z" fill="#1574E5"/>
<path d="M36.1422 30.4C36.5025 31.7821 36.8642 33.1634 37.2034 34.5518C37.2548 34.7629 37.5911 34.6708 37.5278 34.4625C37.114 33.0952 36.7228 31.7215 36.3315 30.3479C36.3246 30.3229 36.308 30.3017 36.2855 30.2889C36.2629 30.2761 36.2362 30.2727 36.2112 30.2797C36.1862 30.2866 36.1649 30.3031 36.1521 30.3257C36.1393 30.3482 36.136 30.375 36.1429 30.4H36.1422Z" fill="#1574E5"/>
<path d="M37.4061 34.6074C37.7621 34.6074 37.7628 34.0536 37.4061 34.0536C37.0493 34.0536 37.05 34.6074 37.4061 34.6074Z" fill="#1574E5"/>
<path d="M47.2994 46.4296C46.7068 46.0717 46.0474 45.8385 45.3614 45.7442C45.2496 45.7288 45.1419 45.7773 45.1257 45.9012C45.1222 45.9278 45.1244 45.9548 45.1321 45.9805C45.1398 46.0061 45.1529 46.0299 45.1704 46.0502C45.188 46.0704 45.2096 46.0868 45.2339 46.0981C45.2582 46.1094 45.2847 46.1154 45.3115 46.1158C45.9584 46.1759 46.5874 46.3619 47.1629 46.6633C47.1939 46.6814 47.2308 46.6864 47.2655 46.6773C47.3002 46.6682 47.3299 46.6457 47.348 46.6147C47.3661 46.5837 47.3712 46.5468 47.3621 46.5121C47.3529 46.4774 47.3304 46.4478 47.2994 46.4296Z" fill="#1574E5"/>
<path d="M47.2129 48.0235C46.7892 47.8657 46.3469 47.7633 45.897 47.7188C45.8503 47.7217 45.8065 47.7423 45.7745 47.7764C45.7425 47.8104 45.7247 47.8554 45.7247 47.9022C45.7247 47.9489 45.7425 47.9939 45.7745 48.0279C45.8065 48.062 45.8503 48.0826 45.897 48.0855C46.1036 48.0885 46.3094 48.112 46.5113 48.1558C46.7201 48.2031 46.925 48.2661 47.1242 48.3444C47.1668 48.3557 47.212 48.3499 47.2503 48.3282C47.2886 48.3065 47.3168 48.2706 47.329 48.2283C47.3399 48.1858 47.3339 48.1407 47.3123 48.1025C47.2906 48.0643 47.255 48.036 47.2129 48.0235Z" fill="#1574E5"/>
<path d="M30.0158 50.8658C30.3426 50.3747 30.7166 49.9168 31.1326 49.4985C31.2846 49.3458 31.0376 49.103 30.8968 49.2635C30.4903 49.7234 30.1279 50.2205 29.8145 50.7483C29.7378 50.8785 29.9334 50.9897 30.0158 50.8658Z" fill="#1574E5"/>
<path d="M30.8715 52.8031L31.4344 52.0748C31.6181 51.8362 31.7969 51.5927 31.9904 51.3619C32.009 51.3443 32.0237 51.3229 32.0332 51.2991C32.0428 51.2753 32.047 51.2497 32.0457 51.2241C32.0443 51.1985 32.0374 51.1735 32.0254 51.1508C32.0135 51.1281 31.9967 51.1083 31.9763 51.0928C31.9559 51.0773 31.9323 51.0664 31.9073 51.0608C31.8822 51.0553 31.8563 51.0553 31.8313 51.0608C31.8062 51.0664 31.7827 51.0773 31.7623 51.0928C31.7419 51.1083 31.7251 51.1281 31.7131 51.1508C31.5365 51.4063 31.343 51.6497 31.1558 51.8974L30.5928 52.642C30.5713 52.6791 30.5654 52.7233 30.5763 52.7648C30.5872 52.8064 30.6142 52.8419 30.6512 52.8636C30.6885 52.8845 30.7324 52.8901 30.7737 52.8794C30.815 52.8686 30.8505 52.8423 30.8729 52.8059L30.8715 52.8031Z" fill="#1574E5"/>
</svg>

<svg xmlns="http://www.w3.org/2000/svg" width="76" height="76" fill="none"><path fill="#1574E5" d="M28.435 20.818c-.411 1.49-.596 3.037-.71 4.575a52 52 0 0 0-.107 5.344c.104 3.454.546 6.893 1.22 10.28.682 3.426 1.604 6.8 2.651 10.133.205.652.413 1.37 1 1.785.6.423 1.358.372 2.049.282.784-.1 1.572-.182 2.357-.282 2.079-.261 4.222-.563 6.184-1.317.77-.296 1.6-.675 2.152-1.311.844-.972.693-2.365.442-3.538-.38-1.77-.865-3.526-1.333-5.278-.472-1.767-.941-3.536-1.446-5.294-.953-3.334-1.938-6.684-3.212-9.918a41 41 0 0 0-2.04-4.454c-.75-1.387-1.584-2.797-2.626-3.985-.893-1.018-2.166-1.819-3.566-1.448-1.177.313-1.946 1.385-2.423 2.44-.279.634-.5 1.292-.664 1.966-.113.452.58.644.699.193.308-1.162.724-2.456 1.613-3.313.92-.89 2.198-.76 3.148.024.551.456.99 1.028 1.4 1.61q.675.956 1.267 1.97a36 36 0 0 1 2.061 4.152c1.246 2.947 2.195 6.017 3.118 9.078a185 185 0 0 1 2.749 10.084c.2.829.414 1.658.578 2.494.14.718.246 1.54-.024 2.244-.221.573-.853.98-1.4 1.262-1.723.889-3.77 1.2-5.666 1.478-.857.126-1.716.227-2.575.327-.939.11-2.252.51-2.804-.507-.358-.665-.519-1.478-.739-2.195q-.357-1.17-.69-2.345a92 92 0 0 1-1.226-4.824c-1.397-6.224-2.093-12.753-1.306-19.111.102-.821.242-1.64.422-2.447.082-.36-.454-.512-.553-.154"/><path fill="#1574E5" d="M30.308 47.262c-1.33 1.158-2.111 3.008-2.447 4.704-.38 1.93-.2 3.92.327 5.804.315 1.126.764 2.199 1.254 3.258.146.314.634.147.634-.171-.014-1.407.187-2.781.742-4.081a9.5 9.5 0 0 1 2.443-3.365c.294-.262-.141-.693-.433-.432-2.157 1.92-3.565 4.967-3.432 7.877l.633-.171c-1.088-2.173-1.796-4.645-1.694-7.087.04-1.081.252-2.149.629-3.162.397-1.056 1.012-1.934 1.725-2.795a.269.269 0 0 0-.38-.38zM44.594 43.775c.789.432 1.639.724 2.41 1.197a11.95 11.95 0 0 1 5.027 6.21c.338.984.52 2.015.538 3.055l.423-.241a25.9 25.9 0 0 0-8.103-3.822c-.414-.113-.592.536-.176.642a24.6 24.6 0 0 1 7.994 3.665c.175.123.423-.041.423-.24-.08-3.824-2.194-7.617-5.493-9.593-.877-.525-1.93-1.077-2.97-1.126a.14.14 0 0 0-.126.103.14.14 0 0 0 .055.152z"/><path fill="#1574E5" d="M33.855 53.365c.74.674.845 1.768 1.42 2.558.62.85 1.608 1.157 2.628 1.11 1.148-.052 2.252-.443 3.35-.746 1.12-.308 2.464-.456 3.075-1.579.672-1.242.808-2.846.644-4.222-.047-.39-.665-.393-.616 0 .148 1.196.044 2.429-.382 3.561-.204.541-.529.947-1.07 1.175-.54.228-1.118.347-1.675.497-1.591.43-4.371 1.495-5.508-.312-.525-.834-.715-1.833-1.563-2.431-.232-.164-.51.202-.303.392zM34.955 28.955c-1.581-.413-3.25.337-4.16 1.661-.968 1.407-.727 3.211.296 4.512 1.05 1.337 2.785 1.842 4.36 1.168 1.522-.653 2.651-2.256 2.44-3.945-.235-1.87-1.936-3.424-3.831-3.42-.375 0-.375.576 0 .583 1.433.026 2.697 1.113 3.078 2.475s-.327 2.738-1.507 3.442c-1.202.718-2.683.597-3.718-.361-.992-.915-1.44-2.42-.856-3.68.64-1.385 2.275-2.256 3.78-2.006.276.046.401-.355.118-.43M28.228 24.863c1.544-.344 3.05-.873 4.588-1.245 1.54-.371 3.104-.611 4.67-.868.334-.055.259-.618-.08-.593-1.6.122-3.212.433-4.776.785-1.548.352-3.17.75-4.597 1.457-.268.132-.075.523.195.463M30.254 45.686c.247.06.483-.03.723-.097.282-.08.563-.168.845-.25q.847-.246 1.695-.498a67 67 0 0 1 3.414-.919q1.72-.414 3.462-.727c1.16-.211 2.336-.327 3.492-.541.342-.064.266-.634-.082-.61-1.154.071-2.322.306-3.458.505a69 69 0 0 0-3.527.715q-1.724.397-3.423.888a31 31 0 0 0-2.516.848c-.242.093-.542.175-.704.383-.078.1-.065.268.08.303z"/><path fill="#1574E5" d="M37.57 56.827c-.227.7-.053 1.51.338 2.119.196.307.453.57.756.774.333.223.915.281.981.742.059.408-.016.795.125 1.196.13.354.341.672.616.93.672.644 1.628.86 2.515 1.01.263.046.379-.355.112-.405-.84-.154-1.76-.281-2.4-.901-.302-.294-.507-.686-.484-1.116.02-.363.152-.712.043-1.077-.099-.332-.384-.53-.689-.655-.327-.136-.618-.274-.871-.53-.523-.53-.729-1.24-.629-1.971.037-.266-.326-.384-.413-.114z"/><path fill="#1574E5" d="M43.5 63.426c.023-.456.03-.929.18-1.364.133-.384.4-.672.69-.946.458-.432 1.016-.87 1.109-1.534.102-.733-.4-1.287-.852-1.795-.601-.676-.939-1.423-.72-2.34.074-.313-.4-.446-.482-.134a2.78 2.78 0 0 0 .416 2.32c.39.542 1.272 1.115 1.18 1.87-.086.687-.862 1.126-1.282 1.6-.58.659-.673 1.477-.656 2.322.005.271.406.27.422 0zM37.104 45.844c-1.029.29-2.052.586-3.096.82-1.044.236-2.102.388-3.15.597-.342.07-.191.563.14.514 1.047-.159 2.094-.447 3.115-.723s2.062-.571 3.064-.935c.169-.062.103-.323-.075-.273zM35.793 48.146c-.737.16-1.483.267-2.22.43-.735.162-1.477.29-2.205.476-.368.094-.211.664.157.57.725-.186 1.44-.432 2.16-.642s1.427-.475 2.147-.69a.075.075 0 0 0 .052-.092.075.075 0 0 0-.092-.052M36.03 50.187a16.5 16.5 0 0 1-4.082.955.284.284 0 0 0-.275.325.285.285 0 0 0 .352.238 18.6 18.6 0 0 0 4.125-1.245c.155-.066.044-.334-.115-.274zM37.028 54.862a77 77 0 0 1-.484-1.108c-.158-.37-.262-.769-.449-1.125a.23.23 0 0 0-.31-.082.233.233 0 0 0-.081.31c.159.365.4.695.587 1.047.188.351.371.709.553 1.066.063.123.238.015.184-.107M38.62 54.226c-.078-.311-.155-.62-.221-.934-.034-.157-.07-.313-.097-.47l-.04-.219a1.5 1.5 0 0 0-.048-.255.227.227 0 0 0-.438.122q.032.125.086.244l.076.21c.055.151.103.303.154.455.1.304.19.61.281.915a.13.13 0 0 0 .25-.07zM40.634 54.058l-.237-.992a22 22 0 0 1-.11-.488q-.026-.117-.05-.235a1.4 1.4 0 0 1-.013-.27.21.21 0 1 0-.395.107q.06.11.102.226c.026.083.046.168.07.25q.066.242.126.485l.243.99c.042.172.306.1.265-.07zM42.251 53.296l-.12-.867-.059-.415a2 2 0 0 1-.036-.445.18.18 0 0 0-.205-.178c-.098.014-.192.123-.15.226q.07.217.09.443l.066.432.133.881a.146.146 0 0 0 .179.102.15.15 0 0 0 .102-.18M43.444 52.873q.073-.41.103-.825c.019-.273.01-.543.013-.816a.185.185 0 0 0-.37 0q.036.391.009.785a7 7 0 0 1-.08.766.173.173 0 0 0 .118.207.17.17 0 0 0 .207-.117M31.104 30.51c.132.875.281 1.747.461 2.613.18.867.33 1.747.57 2.594.07.243.429.14.377-.105-.184-.865-.422-1.716-.588-2.587-.167-.871-.32-1.74-.456-2.615-.036-.24-.4-.14-.364.1M31.863 29.919c.422 2.046.78 4.124 1.302 6.149.061.237.402.133.36-.1-.355-2.06-.886-4.098-1.34-6.138-.048-.211-.365-.12-.322.089M32.691 29.415c.606 2.234 1.151 4.496 1.824 6.711a.17.17 0 0 0 .204.108.17.17 0 0 0 .12-.197c-.524-2.252-1.183-4.487-1.775-6.725-.063-.24-.438-.14-.373.103M33.844 29.256a163 163 0 0 1 1.552 6.128c.05.21.374.121.325-.09a150 150 0 0 0-1.572-6.122c-.055-.196-.359-.113-.305.084M35.025 29.485c.434 1.857.811 3.74 1.309 5.582.07.248.443.14.385-.106-.43-1.857-.985-3.694-1.477-5.536-.038-.14-.25-.08-.217.06M36.142 30.4c.36 1.382.722 2.763 1.061 4.152.052.21.388.119.325-.09-.414-1.367-.805-2.74-1.197-4.114a.098.098 0 0 0-.188.052"/><path fill="#1574E5" d="M37.406 34.607c.356 0 .357-.553 0-.553s-.356.553 0 .553M47.3 46.43a5.1 5.1 0 0 0-1.939-.686c-.111-.015-.22.033-.235.157a.19.19 0 0 0 .186.215c.646.06 1.275.246 1.85.547a.135.135 0 0 0 .137-.233M47.213 48.024a5.3 5.3 0 0 0-1.316-.305.184.184 0 0 0 0 .367q.31.004.614.07.315.07.613.188a.17.17 0 0 0 .205-.116.17.17 0 0 0-.116-.205M30.016 50.866c.327-.491.7-.95 1.117-1.367.152-.153-.095-.396-.236-.236-.407.46-.77.958-1.082 1.485-.077.13.118.242.2.118M30.872 52.803l.562-.728c.184-.239.363-.482.556-.713a.177.177 0 1 0-.277-.211c-.177.255-.37.499-.557.746l-.563.745a.163.163 0 0 0 .058.222.166.166 0 0 0 .222-.058z"/></svg>
